T: Whitehaven Volunteers, The
M: 4/4
L: 1/8
K: Gmaj
|: d>c |B2 (3BBB B>cB>A | G2 G2 G3 D | G2 B2 d2 B2 | e>dc>B (3ABA d>c |
B2 c>B A>cB>A | G2 (3GGG G3 D | E2 c2 A3 F | G2 G2 G2 :|
|: d>c |B2 d2 d2 e>f | g2 d2 d3 c | B2 d2 d2 B2 | A>^GA>B (3ABA d>c |
B2 (3ddd d2 (3def | g>ag>f g4 | B2 G2 B>AG>F | G6 :|
